assets/icons/24px/stroke/tray-and-arrow-right-24px.svg

<svg width="24" height="24" viewBox="0 0 24 24" fill="none" xmlns="http://www.w3.org/2000/svg">
<g clip-path="url(#clip0_878_23410)">
<path fill-rule="evenodd" clip-rule="evenodd" d="M15.6138 6.27147C16.0161 5.89315 16.649 5.91264 17.0273 6.315L21.7285 11.315C22.0905 11.6999 22.0905 12.3001 21.7285 12.685L17.0273 17.685C16.649 18.0874 16.0161 18.1069 15.6138 17.7285C15.2114 17.3502 15.1919 16.7174 15.5702 16.315L18.6871 13H7.5C6.94772 13 6.5 12.5523 6.5 12C6.5 11.4477 6.94772 11 7.5 11H18.6871L15.5702 7.68501C15.1919 7.28265 15.2114 6.64978 15.6138 6.27147Z" fill="white"/>
<path fill-rule="evenodd" clip-rule="evenodd" d="M11.0001 3C11.0001 3.55229 10.5523 4 10.0001 4H7.00006C6.02898 4 5.40127 4.00213 4.93877 4.06431C4.50503 4.12263 4.36908 4.21677 4.29295 4.2929C4.21683 4.36902 4.12268 4.50497 4.06437 4.93871C4.00218 5.40121 4.00006 6.02893 4.00006 7L4.00006 17C4.00006 17.9711 4.00218 18.5988 4.06437 19.0613C4.12268 19.495 4.21683 19.631 4.29295 19.7071C4.36908 19.7832 4.50503 19.8774 4.93877 19.9357C5.40127 19.9979 6.02898 20 7.00006 20H10.0001C10.5523 20 11.0001 20.4477 11.0001 21C11.0001 21.5523 10.5523 22 10.0001 22L6.9342 22C6.04773 22.0001 5.28392 22.0001 4.67227 21.9179C4.01675 21.8297 3.3884 21.631 2.87874 21.1213C2.36908 20.6117 2.17033 19.9833 2.0822 19.3278C1.99997 18.7161 2.00001 17.9523 2.00006 17.0658L2.00006 6.93417C2.00001 6.04769 1.99997 5.28387 2.0822 4.67221C2.17033 4.0167 2.36908 3.38835 2.87874 2.87868C3.3884 2.36902 4.01675 2.17028 4.67227 2.08215C5.28393 1.99991 6.04774 1.99995 6.93423 2C6.9561 2 6.97804 2 7.00006 2L10.0001 2C10.5523 2 11.0001 2.44772 11.0001 3Z" fill="white"/>
</g>
<defs>
<clipPath id="clip0_878_23410">
<rect width="24" height="24" fill="white"/>
</clipPath>
</defs>
</svg>

<svg width="24" height="24" fill="none" xmlns="http://www.w3.org/2000/svg"><g clip-path="url(#clip0_878_23410)" fill-rule="evenodd" clip-rule="evenodd" fill="#fff"><path d="M15.614 6.271a1 1 0 0 1 1.413.044l4.701 5a1 1 0 0 1 0 1.37l-4.7 5a1 1 0 1 1-1.458-1.37L18.687 13H7.5a1 1 0 1 1 0-2h11.187L15.57 7.685a1 1 0 0 1 .044-1.414z"/><path d="M11 3a1 1 0 0 1-1 1H7c-.971 0-1.599.002-2.061.064-.434.059-.57.153-.646.229-.076.076-.17.212-.229.646C4.002 5.4 4 6.029 4 7v10c0 .971.002 1.599.064 2.061.059.434.153.57.229.646.076.076.212.17.646.229C5.4 19.998 6.029 20 7 20h3a1 1 0 0 1 0 2H6.934c-.886 0-1.65 0-2.262-.082-.655-.088-1.284-.287-1.793-.797-.51-.51-.709-1.138-.797-1.793C2 18.716 2 17.952 2 17.066V6.934c0-.886 0-1.65.082-2.262.088-.655.287-1.284.797-1.793.51-.51 1.138-.709 1.793-.797C5.284 2 6.048 2 6.934 2H10a1 1 0 0 1 1 1z"/></g><defs><clipPath id="clip0_878_23410"><path fill="#fff" d="M0 0H24V24H0z"/></clipPath></defs></svg>
